X:1
T:Bruce Gandy's Farewell to the Iron Hornpipe
R:Hornpipe
C:R.P.F. Cusson arr. Adam Blaine
M:2/4
L:1/16
K:D
[| {g}A2Bc {g}B2GB | {g}ce{g}e{A}e {g}dc{G}cd | {g}e2A2 {g}AB{g}cA | {g}dA{g}cA {g}B2{e}G2 |
{g}A{d}A{g}Bc {g}BG{g}AB | {g}ce{g}e{A}e {g}dc{G}cd | {g}e2A2 {g}GAB{g}(A | A4) {GAG}A2e2 |
{g}A2{GAG}A2 {g}ABc{g}(B | B){d}G{g}GB {g}ce{g}cd | {g}e3{g}(A A3)c | {g}dAc{g}(B B)c{g}BG |
{g}A2{GAG}A2 {g}ABc{g}(B | B){d}G{g}GB {g}ce{g}cd |{g}e2A2 {g}GAB{g}(A | A4) {GAG}A2e2 ||
ae{a}ga ge{g}dc | {g}ABc{g}(d d){G}d{g}cd | {g}e2{ag}a2 ge{g}dc | {gde}dcA{g}(G G2)e2 | 
a2{g}a2 ge{g}dc | {g}ABc{g}(d d){G}d{g}cd | {g}e2A2 {g}GAB{g}(A | A4) {GAG}A2e2 |
a2{g}a2 ge{g}dc | {g}ABc{g}(d d){G}d{g}cd | {g}ecac ge{g}dc | {gde}dcA{g}(G G2)e2 | 
{g}A2{GAG}A2 {g}ABc{g}(B [M:1/4]| B){d}G{g}GB [M:6/8]"Jig Time"| {g}c12 | d12 | {g}e4A2 {g}G2A2B2 | {g}A2{d}A2{e}A2 {g}A4e2 ||
{g}A2B2c2 {g}c2B2c2 | {g}e2c2{d}A2 {g}A4{d}A2 | {g}G2A2B2 {g}B2A2B2 | {g}d2g2e2 {g}d2B2{d}G2 | 
{g}A2B2c2 {g}c2B2c2 | {g}d4 g4 f4 | {g}e4A2 {g}G2A2B2 | {g}A2{d}A2{e}A2 {g}A2{d}c2e2 |]